X:98
T:Reels simple chords 120
M:3/4
L:1/8
K:Bm
[AD,F,A,]A/A/ AA [BG,B,D]B/B/ | BB [AD,F,A,]A/A/ AF | [E4A,4C4E4G4] [AD,F,A,]A/A/ | AA [BG,B,D]B/B/ BB | [AA,CEG]c/c/ ec [d4D,4F,4A,4] |
[AD,F,A,]A/A/ AA | [BG,B,D]B/B/ BB [AD,F,A,]A/A/ | AF [E4A,4C4E4G4] | [AD,F,A,]A/A/ AA [BG,B,D]B/B/ |
BB [AA,CEG]c/c/ ec | [d2D,2F,2A,2]>A2 [dD,F,A,]d/d/ | fA2< [d2D,2F,2A,2]A | [dD,F,A,]d/d/ cB2< [A2A,2C2E2G2] |
A [dD,F,A,]d/d/ dd | [BG,B,D]B/B/ BB [AA,CEG]c/c/ | ec2< [d2D,2F,2A,2]A | [dD,F,A,]d/d/ fA2< [d2D,2F,2A,2] |
A [dD,F,A,]d/d/ cB | [A2A,2C2E2G2]>A2 [dD,F,A,]d/d/ | dd [BG,B,D]B/B/ BB | [AA,CEG]c/c/ ec2< [d2D,2F,2A,2] |


